!!!COM: Palestrina, Giovanni Perluigi da
!!!OPR: Missa In festis Apostolorum (I)
!!!OMD: Sanctus
!!!OTL: Hosanna
**kern	**kern	**kern	**kern	**kern
*Ibass	*Itenor	*Itenor	*Icalto	*Icant
!Bassus	!Tenor 2	!Tenor 1	!Altus	!Cantus
*clefF4	*clefGv2	*clefGv2	*clefG2	*clefG2
*k[]	*k[]	*k[]	*k[]	*k[]
*D:dor	*D:dor	*D:dor	*D:dor	*D:dor
*M3/2	*M3/2	*M3/2	*M3/2	*M3/2
=78	=78	=78	=78	=78
1r	2A	1r	1r	1r
.	2B	.	.	.
2r	2A	2r	2r	2r
=79	=79	=79	=79	=79
2r	1d	1r	1r	1r
2D	.	.	.	.
2E	2c	2r	2r	2r
=80	=80	=80	=80	=80
2D	2.B	1r	2r	1r
1G	.	.	2d	.
.	4A	.	.	.
.	4B	2r	2e	2r
.	4c	.	.	.
=81	=81	=81	=81	=81
2F	1d	1r	2d	1r
1E	.	.	1g	.
.	2c#	2r	.	2r
=82	=82	=82	=82	=82
2D	1.d	2r	2.f	1r
2F	.	2A	.	.
.	.	.	4e	.
2G	.	2B	2d	2r
=83	=83	=83	=83	=83
1A	1r	2A	2c	1r
.	.	1d	1B	.
2G	2r	.	.	2r
=84	=84	=84	=84	=84
2A	1r	2c	2A	2r
2D	.	1d	2f	2a
2r	2r	.	2d	2b
=85	=85	=85	=85	=85
1r	2r	2c	2e	2a
.	2r	1B-	2f	1dd
2r	2d	.	2g	.
=86	=86	=86	=86	=86
1r	2e	1A	2a	2.cc
.	2c	.	2e	.
.	.	.	.	4b
2r	2d	2D	2f	2a
=87	=87	=87	=87	=87
1r	2G	2r	1d	4g
.	.	.	.	4f
.	1A	2r	.	4e
.	.	.	.	4d
2r	.	2A	2c#	2e
=88	=88	=88	=88	=88
2r	2D	2B	1d	2d
2D	2F	2A	.	2r
2E	2G	2c	2r	2r
=89	=89	=89	=89	=89
2D	2F	1d	2A	1r
1G	1E	.	2B	.
.	.	2c#	2G	2r
=90	=90	=90	=90	=90
2.F	2.D	1.d	2A	2r
.	.	.	1f	2a
4E	4E	.	.	.
2D	4F	.	.	2b
.	4G	.	.	.
=91	=91	=91	=91	=91
2C	1A	2r	2e	2a
1BB	.	2.D	1d	1dd
.	2G#	.	.	.
.	.	4E	.	.
=92	=92	=92	=92	=92
1AA	2.A	4F	2r	2.cc
.	.	4G	.	.
.	.	2A	2e	.
.	4G	.	.	4b
2r	4A	2F	2f	2a
.	4B	.	.	.
=93	=93	=93	=93	=93
1r	1.c	2C	2e	2g
.	.	2F	2a	2f
2r	.	2C	2g	2e
=94	=94	=94	=94	=94
1r	2r	2D	2.f	1d
.	2A	2F	.	.
.	.	.	4e	.
2r	2B	2G	2d	2r
=95	=95	=95	=95	=95
1r	2A	1A	2c	2a
.	1d	.	1B	2b
2r	.	2G#	.	2b
=96	=96	=96	=96	=96
1r	4c	2A	1.A	2.cc
.	4B	.	.	.
.	4A	2.c	.	.
.	4G	.	.	4b
2r	2F	.	.	2a
.	.	4A	.	.
=97	=97	=97	=97	=97
2r	2D	1d	1A	2f
2r	1A	.	.	1e
2AA	.	2c#	2a	.
=98	=98	=98	=98	=98
2BB	2D	2d	2g	2d
2AA	2E	4c	2.a	2r
.	.	4B	.	.
[2D	4F	2A	.	2r
.	4G	.	4g	.
=99	=99	=99	=99	=99
2D]	4A	2D	2f	2r
.	4F	.	.	.
2C	2c	2E	2g	2r
2BB	2d	2D	[2G	2d
=100	=100	=100	=100	=100
2C	2c	2.G	4G]	2e
.	.	.	4A	.
2GG	2B	.	2B	2d
.	.	4F	.	.
2AA	2A	2E	2c#	2a
=101	=101	=101	=101	=101
2D	1.A	2D	1d	2f
1AA	.	1E	.	2e
.	.	.	2c#	2a
=102	=102	=102	=102	=102
[1.D	[1.A	[1.D	[1.d	[1.f#
=103	=103	=103	=103	=103
1.D]	1.A]	1.D]	1.d]	1.f#]
==	==	==	==	==
*-	*-	*-	*-	*-
!!!CDT: 1525/^1526/-1594/2/2
!!!OCY: Italia
!!!AGN: Mass (Paraphrase)
!!!AST: renaissance, vocal
!!!ASW: Gregorian Mass
!!!PWK: Masses, Book Mantuan II
!!!RNB: Cadence finals: A,E
!!!YOR: Le Opere Complete, v. 19, p. 43
!!!YOO: Rome, Italy: Fratelli Scalera
!!!END: 1992//
!!!EED: John Miller
!!!YEC: Copyright 2000, John Miller
!!!YEN: United States of America
!!!YEM: Rights to all derivative electronic formats reserved.
!!!YEM: Refer to licensing agreement for further details.
!!!YEM: This file must be accompanied by the licensing agreement.
!!!YEM: A copy of the licensing agreement may be found at http://www.music-cog.ohio-state.edu/HumdrumDatabases/Palestrina/license.txt
!!!EMD: converted to Humdrum by Bret Aarden
